X:1
T:Lightly she whipped o'er the dales - Mundy
T:#
%%score { 1 | 2 } 3 4 5
L:1/8
Q:1/4=120
M:4/4
K:Bb
V:1 treble nm="Soprano I" snm="S"
V:2 treble 
V:3 treble nm="Alto" snm="A"
V:4 treble-8 nm="Tenor" snm="T"
V:5 bass nm="Bass" snm="B"
V:1
 z4"^Lightly she whipped o'er the dales" d4 | G2 c2 BABc | d2 c3 (B/A/ B"^John Mundy\n(?-1630)"G) | %3
w: Light-|ly she whip- ped o'er the|dales, o'er the * * *|
[M:4/4] (^F G2 F) G4 | z2 d2 G2 (c2 | BA Bc d2) B2 | A8 | A4 z2 c2- | cc G2 B4 | B2 f3 f c2 | %10
w: * * * dales,|o'er the dales,|* * * * * o'er|the|dales, mak\-|* ing the woods|proud, mak- ing the|
 e2 d4 c2- | c2 (B2 A4 | B3 c d2 e2) | d2 B2 c4- | c2 (B2 A4) | B6 B2 | G2 GA BG d2 | AF A3 A G2 | %18
w: woods proud with|* her *||pre- sence, with|* her *|pre- sence.|Gent- ly she trod the flowers,|gen- tly trod the flowers,|
 z4 B2 (Bc) | (dB) f2 f2 d2 | c2 ff d2 e2 | d4 c4 | =B3 B G4 | z8 | z4 c4 | A2 d3 c =B2 | %26
w: gent- ly *|* * trod the flowers|and they as gent- ly|kiss'd her|ten- der feet.||The|birds in their best|
 (c3 _B AG A2) | B6 f2- | f2 e2 d4 | =e4 c2 c2 | d6 f2 | e3 d c2 B2 | A2 (G4 ^F2) | %33
w: lan\- * * * *|guage bade|* her wel-|come, be- ing|proud that|O- ri- a- na|heard their *|
 G4 !fermata!z2 B2 | B6 A2 | G3 ^F B2 A2 | !fermata!z2 d2 e4 | d2 c3 dBc | (AG A2) =B2 _B2 | %39
w: song: The|clove- foot|sa- tyrs sing- ing,|made mu-|sic to the fauns a-|danc\- * * ing, and|
 B3 B A2 G2 | B2 A2 G3 G | ^F2 d2 e>e dd | (c4 B2 A2 | G2) ^F2 z2 d2 | e>e dd cB A2 | A>A AB A4 | %46
w: both to- ge- ther|with an em- pha-|sis, sang O- ri- a- na's|prai\- * *|* ses, sang|O- ri- a- na's prai- ses, sang|O- ri- a- na's prai-|
 A2 f2 d4 | =e4 f4- | f2 =e2 d4- | d2 c2 B3 B | A6 c2 | f3 f =e3 d | (cd) =e2 f4 | z4 z2 B2 | %54
w: ses, whilst the|ad- join\-|* ing woods|* with me- lo-|dy, with|me- lo- dy, with|me\- * lo- dy,|did|
 f3 e (de) f2 | e2 d2 Bc d2 | c4 (cB B2- | B2) A2 !fermata!B4 | z2 d2 e4 | d2 c3 d B2 | A4 G2 F2 | %61
w: en- ter- tain * their|sweet, sweet har- mo- ny,|sweet har\- * *|* mo- ny.|Then sang|the shep- herds and|nymphs of Di-|
 =E4 ^F4 | z2 (dc) B2 e2 | d2 (BA G2 A2 | F4 EF G2 | A2 F4 E2) | F2 (f=e) d2 ed | c4 =B4- | %68
w: a- na,|the * nymphs of|Di- a\- * * *|||na, the * nymphs of Di-|a- na,|
 B2 (dc) =B2 c2 | (Ac) (=B2 A4- | A4) A4 | A4 G4- | G2 B2 A2 G2 | A4 G2 G2- | G2 A2 B2 A2- | %75
w: * the * nymphs of|Di\- * a\- *|* na,|Long live|* fair O- ri-|a- na, long|* live fair O\-|
 A2 A2 A4 | G4 z4 | d4 =B4 | c2 B (c d2) f2 | (=e4 d4) | A2 B2 G2 B2 | A8 | A4 (G2 d2 | %83
w: * ri- a-|na,|long live|fair O- ri\- * a\-||na, long live fair|O-|ri- a\- *|
 ^c2 d4 c2) | d8 | z8 | z2 A2 ^F4 | G2 (FG) A2 (GA | B2 d4 c2- | cB B4 A2) | B4 f3 =e | %91
w: |na,||long live|fair O\- * ri- a\- *|||na, fair *|
 (d2 cB A2) Bc | (d4 c2 B2) | A8 | z8 | f3 =e d2 cB | A2 Bc d4 | =B8 |] %98
w: * * * * O- ri-|a\- * *|na,||fair * O- ri\- *|a\- * * *|na.|
V:2
 z8 | z8 | z4 d4 |[M:4/4] A3 c BABc | d2 A2 B2 G2 | G4 F2 (G2- | G2 F2) =E4 | ^F4 F4 | E4 D4 | %9
w: ||Light-|ly she whip- ped o'er the|dales, light- ly she|whip- ped o'er|* * the|dales, o'er|the dales,|
 d3 d A4 | c2 B3 A G2 | A2 G4 ^F2 | G6 c2 | A2 G2 e4 | d8 | d6 d2 | d2 (e2 d2) (Bc | d2) d2 z4 | %18
w: mak- ing the|woods proud with her|pre- sence, mak-|ing the|woods proud with|her|pre- sence,|with her * pre\- *|* sence.|
 B2 Bc dB f2- | f2 d2 B4 | A2 AA =B2 c2 | A3 G G2 ^F2 | G4 _B4 | G2 c3 B A2 | G2 G4 ^F=E | ^F4 G4 | %26
w: Gent- ly she trod the flowers,|* the flowers,|and they as gent- ly|kiss'd her ten- der|feet. The|birds in their best|lan- guage bade her|wel- come,|
 z2 e2 c2 f2- | fe d2 d2 d2 | c2 c2 =B4 | c4 A2 A2 | B6 A2 | c3 d e2 d2 | c4 A4 | %33
w: the birds in|* their best lan- guage|bade her wel-|come, be- ing|proud that|O- ri- a- na|heard their|
 =B4 !fermata!z2 d2 | d6 c2 | B3 A G2 ^F2 | !fermata!z2 B2 B4 | B2 A3 AGA | %38
w: song: the|clove- foot|sa- tyrs sing- ing,|made mu-|sic to the fauns a-|
 (^F G2 !courtesy!^F) G2 d2 | e3 d cd e2- | ed d4 c2 | d2 ^F2 G>G GG | (E3 F G2) A2 | %43
w: danc\- * * ing and|both to- ge- ther with|* an em- pha-|sis, sang O- ri- a- na's|prai\- * * ses,|
 z2 d2 e>e dd | c2 =B2 z2 f2 | =e>e dd (^c d2 c) | d4 z2 =B2 | c3 c c2 d2 | c2 A4 (G2- | %49
w: sang O- ri- a- na's|prai- ses, sang|O- ri- a- na's prai\- * *|ses, whilst|the ad- join- ing|woods with me\-|
 GF) (F4 =E2) | F4 F2 A2- | A2 =B2 c4- | c4 z2 c2 | f3 _e de f2 | (Bc) d2 B4 | z2 B2 d4 | (e6 d2) | %57
w: * * lo\- *|dy, with me\-|* lo- dy,|* did|en- ter- tain their sweet|har\- * mo- ny,|their sweet|har\- *|
 c4 !fermata!d4 | z2 B2 B4 | B2 A3 A G2 | ^F4 B2 A2 | A8 | G2 (BA) G2 (cB) | A2 G2 c4 | %64
w: mo- ny.|Then sang|the shep- herds and|nymphs of Di-|a-|na, the * nymphs of *|* Di- a-|
 d4 z2 (ed) | c2 (d2 B4 | A2) (A3 G) (G2- | G2 ^F2) G4- | G4 z2 (f=e) | d2 (=e3 d) d2- | %70
w: na, the *|nymphs of *|* Di\- * a\-|* * na,|* the *|nymphs of * Di\-|
 d2 ^c2 d4- | d4 z4 | z8 | d4 =B4 | c2 Bc (d2 f2 | =e4) d4 | B2 c2 d2 G2- | G2 ^F2 G4 | G4 ^F2 A2 | %79
w: * a- na,|||Long live|fair O- ri- a\- *|* na,|long live fair O\-|* ri- a-|na, O- ri-|
 A4 A4 | f2 d2 =e2 de | (f2 d4 ^c2) | d4 B2 A2- | A2 G2 A4 | A4 G4- | (G2 d4 c2) | d4 z2 d2 | %87
w: a- na,|long live fair O- ri-|a\- * *|na, long live|* fair O-|ri- a\-||na, long|
 =B4 c2 (Bc) | d2 f4 e2- | e2 d2 c4 | d4 B4- | B4 c4 | z8 | (f3 =e d2 cB) | A2 (Bc) (d4- | %95
w: live fair O\- *|ri- a\- *|||* na,||fair * * * *|O- ri\- * a\-|
 d2 D2 A2 G2 | ^F2 G4 F2) | G8 |] %98
w: ||na.|
V:3
 G4 D3 F | EDEF G3 A | ^FD=EF G2 G,2 |[M:4/4] D8 | F4 B,2 E2 | D6 D2 | ^C2 (D4 C2) | D2 D3 D A,2 | %8
w: Light- ly she|whip- ped o'er the dales, Light-|ly she whip- ped o'er the|dales,|light- ly she|whip- ped|o'er the *|dales, mak- ing the|
 C4 G,2 G2- | G2 F2 C2 F2 | G2 F2 G2 E2 | D4 D4 | D6 G2 | F2 G4 (A2- | AG) G4 ^F2 | G6 G2 | %16
w: woods proud with|* her pre- sence,|with her * pre\-|* sence,|mak- ing|the woods proud|* * with her|pre- sence.|
 z4 D2 DE | FD F4 D2 | E2 G2 F4 | D2 DE FF F2 | F2 FF G2 E2 | F3 D =E2 C2 | D4 D4 | =E2 E3 G ^F2 | %24
w: Gent- ly she|trod the flowers, she|trod the flowers,|gent- ly she trod the flowers,|and they as gent- ly|kiss'd her ten- der|feet. The|birds in their best|
 D2 =E2 C2 C2 | D3 C =B,2 D2 | G2 G2 F4 | F6 F2 | F2 G2 G4 | G4 F2 F2 | F4 D4 | G3 G G2 G2 | %32
w: lan- guage bade her|wel- come, the birds|in their best|lan- guage|bade her wel-|come, be- ing|proud that|O- ri- a- na|
 =E4 D4 | D4 !fermata!z2 G2 | F6 F2 | D3 D D2 D2 | !fermata!z2 F2 G4 | F2 F3 FDE | D4 D2 D2 | %39
w: heard their|song: the|clove- foot|sa- tyrs sing- ing,|made mu-|sic to the fauns a-|danc- ing, and|
 G3 F F2 G2 | G2 F2 B,>B, G,2 | z2 D2 C>C =B,B, | C4 D4 | B,2 D (A, C2) G2 | E (C G2) =E2 D2 | %45
w: both to- ge- ther|with an em- pha- sis,|sang O- ri- a- na's|prai- ses,|sang O- ri\- * a-|na's prai\- * ses, sang|
 =E>E FG E4 | ^F2 A2 G4- | G2 G2 F2 A2 | A2 A,2 D4 | (B,2 C2) D2 B,2 | C2 A,2 C4 | z2 D2 G3 F | %52
w: O- ri- a- na's prai-|ses, whilst the|* ad- join- ing|woods with me-|lo\- * dy, with|me- lo- dy,|did en- ter-|
 (=EF) G2 F4 | z2 C2 F3 E | (DE) F2 F4 | (G2 F2) F4 | G4 F4- | F2 F2 !fermata!F4 | z2 F2 G4 | %59
w: tain * their sweet,|did en- ter-|tain * their sweet,|their * sweet,|sweet har\-|* mo- ny,|Then sang|
 F2 F3 F D2 | D4 D2 D2 | (^C4 D2 ^F=E) | D4 z2 G2 | F2 (D3 C C2- | C2 =B,2) C4 | F2 D4 (CB, | %66
w: the shep- herds and|nymphs of Di-|a\- * * *|na, of|Di- a\- * *|* * na,|of Di- a\- *|
 C2 D4 C2) | C4 z2 D2- | D2 D2 G2 F2 | z2 (GF) =E2 (F2 | =E4) ^F4 | =F4 D4 | E2 G2 ^F2 G2- | %73
w: |na, of|* Di- a- na,|of * Di- a\-|* na,|Long live|fair O- ri- a\-|
 (G2 ^F2) G2 D2 | =E4 F2 D2 | =E4 z4 | G4 F2 D2 | D3 D D4 | C4 z2 D2- | DD ^C2 D4 | D2 B,2 C2 B,C | %81
w: * * na, fair|O- ri- a-|na,|long live fair|O- ri- a-|na, O\-|* ri- a- na,|long live fair O- ri-|
 D2 F2 =E4 | D6 F2 | =E2 D2 E4 | D2 F2 D4 | E2 (DE) F2 G2 | ^F4 D4 | D4 F4 | F6 G2 | F8 | F4 F4 | %91
w: a- na, long|live fair|O- ri- a-|na, long live-|fair O\- * ri- a-|na, long|live fair|O- ri-|a-|na, long|
 F8 | F2 ED (F2 D2) | D8 | (F3 =E D2 CB,) | A,2 (B,C D2 G,2 | A,2 D2) D4 | D8 |] %98
w: live|fair O- ri- a\- *|na,|fair * * * *|O- ri\- * * *|* * a-|na.|
V:4
 z8 | z8 | z8 |[M:4/4][K:treble-8] z4 G4 | D3 F EDEF | G3 A B2 G2 | A6 A2 | D4 z4 | z4 z2 G2- | %9
w: |||Light-|ly she whip- ped o'er the|dales, she whip- ped|o'er the|dales,|mak\-|
 GG D2 F4 | C2 D2 E4 | F2 G2 D4 | G3 A B2 c2 | d2 e2 (c4 | d8) | G4 G2 GA | BG c2 B2 G2 | %17
w: * ing the woods|proud with her|pre- sence, mak-|ing the woods proud|with her pre\-||sence. Gent- ly she|trod the flowers, gent- ly|
 A2 d2 (cd) B2 | G2 GA B4- | B2 F2 B4 | c2 dd d2 c2 | F3 G =E2 A2 | D4 G4 | c3 B A2 d2 | %24
w: she trod the * flowers,|gent- ly she trod|* the flowers,|and they as gent- ly|kiss'd her ten- der|feet. The|birds in their best|
 =B2 c2 A4 | A4 G2 G2 | c4 c2 c2 | B3 c d2 B2 | c2 c2 d4 | c4 c2 c2 | B6 F2 | G3 G E2 G2 | A4 A4 | %33
w: lan- guage bade|her wel- come,|the birds in|their best lan- guage|bade her wel-|come, be- ing|proud that|O- ri- a- na|heard their|
 G4 !fermata!z2 d2 | d6 A2 | B3 d (BG) A2 | !fermata!z2 B2 B2 G2 | B2 c3 (FBA-) | AB A2 G2 G2 | %39
w: song: the|clove- foot|sa- tyrs sing\- * ing,|made mu- sic|to the fauns * *|* a- danc- ing, and|
 G3 B c2 c2 | B2 (F2 G4) | A>A D2 z4 | z2 A2 G>G ^FF | G2 A2 =FG>GG | G G4 G2 F | A>A FD A4 | %46
w: both to- ge- ther|with an *|em- pha- sis,|sang O- ri- a- na's|prai- ses, sang O- ri- a-|na's prai- ses, sang|O- ri- a- na's prai-|
 A2 d2 =B2 d2 | c3 c A2 d2 | =e>e c2 z4 | z8 | z2 c2 A3 A | F4 z2 G2 | c3 B AB c2 | B2 AA B4- | %54
w: ses, whilst the ad-|join- ing woods with|me- lo- dy,||with me- lo-|dy, did|en- ter- tain their sweet,|sweet har- mo- ny,|
 B2 B2 d3 c | Bc d3 cBA | G4 A2 B2 | c3 c !fermata!B4 | z2 B2 B4 | B2 c3 F (BG) | A2 D3 (=E FG | %61
w: * did en- ter-|tain their sweet, sweet har- mo-|ny, sweet, sweet|har- mo- ny.|Then sang|the shep- perds and *|nymphs of Di- a\- *|
 A4) A2 (dc) | B4 e2 c2 | d2 d2 z2 (A2- | A2 GF) G2 (cB) | (A2 BA G4 | F4) B2 G2 | (A4 d4) | %68
w: * na, the *|nymphs of Di-|a- na, the|* * * nymphs, the *|nymphs * * *|* of Di-|a\- *|
 G4 z2 c2 | d2 =B2 ^c2 (d2 | =e2 A2) A4 | d4 =B4 | c2 Bc (d2 e2) | d4 G4 | c4 B2 d2- | %75
w: na, the|nymphs of Di- a\-|* * na,|Long live|fair O- ri- a\- *|na, long|live fair O\-|
 d2 ^c2 d2 (D2 | E4 D2 B,2) | D4 z2 G2 | G2 G2 A4- | A4 D4- | D4 z4 | z4 A4 | ^F4 G2 (=FG | %83
w: * ri- a\- *||na, fair|O- ri- a\-|* na,||fair|O- ri- a\- *|
 A2 B2 A4 | ^F2 D2) G4- | G2 B2 A2 G2 | A8 | G4 c4 | B6 G2 | (A2 B2 c4) | B4 (d3 c) | %91
w: |* * na,|* fair O- ri-|a-|na, fair|O- ri-|a\- * *|na, fair *|
 (B2 AG) A3 (G | F2 G2 A2 G2) | F4 A4 | (d3 c B2 AG | F4) A2 (Bc | d2) (B2 A4) | G8 |] %98
w: * * * O- ri\-||a- na,|fair * * * *|* O- ri\- *|* a\- *|na.|
V:5
 z8 | z8 | z8 |[M:4/4] z8 | z8 | z8 | z8 | z8 | z8 | z8 | z8 | z8 | z8 | z8 | z8 | z8 | z8 | %17
w: |||||||||||||||||
 D,2 D,E, F,D, G,2 | E,4 B,,4 | B,,2 B,,C, D,B,, B,2 | F,2 D,D, G,2 C,2 | D,3 =B,, C,2 A,,2 | %22
w: Gent- ly she trod the flowers,|the flowers,|Gent- ly she trod the flowers,|and they as gent- ly|kiss'd her ten- der|
 G,,8 | z8 | z8 | D,4 G,,2 G,2 | C,2 C,2 F,4 | B,,2 B,4 B,,2 | F,2 C,2 G,4 | C,4 F,2 F,2 | %30
w: feet.|||The birds in|their best lan-|guage bade her|wel- come, wel-|come, be- ing|
 B,,6 D,2 | C,3 =B,, C,2 G,,2 | C,4 D,4 | G,,4 !fermata!z2 G,2 | B,6 F,2 | G,3 D, G,,2 D,2 | %36
w: proud that|O- ri- a- na|heard their|song: the|clove- foot|sa- tyrs sing- ing,|
 !fermata!z2 B,,2 E,4 | B,,2 F,3 D,G,C, | (D, G,, D,2) G,,2 G,2 | E,3 B,, F,2 C,2 | %40
w: made mu-|sic to the fauns a-|danc\- * * ing, and|both to- ge- ther|
 G,2 D,2 E,3 E, | D,4 z4 | z8 | z2 D,2 C,>C, =B,,B,, | (C,2 G,,2) C,2 D,2 | ^C,>C, D,G,, A,,4 | %46
w: with an em- pha-|sis,||sang O- ri- a- na's|prai\- * ses, sang|O- ri- a- na's prai-|
 D,4 z2 G,2 | C,3 C, F,2 D,2 | A,4 B,4- | B,2 A,2 G,3 G, | F,4 z2 F,2 | D,3 D, C,4 | %52
w: ses, whilst|the ad- join- ing|woods with|* their me- lo-|dy, their|me- lo- dy,|
 z2 C,2 F,3 E, | (D,E,) F,2 B,,4 | z2 B,,2 B,3 A, | G,A, B,2 z2 B,,2 | E,4 F,4- | %57
w: did en- ter-|tain * their sweet,|did en- ter-|tain their sweet, their|sweet har\-|
 F,2 F,2 !fermata!B,,4 | z2 B,2 E,4 | B,,2 F,3 D, G,2 | D,4 G,,2 D,2 | A,,4 D,4 | z8 | %63
w: * mo- ny.|Then sang|the shep- herds and|nymphs of Di-|a- na,||
 z2 (G,F,) E,2 F,E, | D,4 C,4 | z8 | z2 (D,C,) B,,2 C,B,, | A,,4 G,,4 | z2 (B,A,) G,2 A,2 | %69
w: the * nymphs of Di-|a- na,||the * nymphs of Di-|a- na,|the * nymphs of|
 (^F,2 G,2) A,4- | A,4 D,4- | D,4 z4 | z8 | z8 | z8 | A,4 ^F,4 | G,2 F,G, A,2 B,2 | A,4 G,3 F, | %78
w: Di\- * a\-|* na,|||||Long live|fair O- ri- a- na,|fair O- ri-|
 E,4 D,4 | z8 | z8 | z8 | z8 | z8 | D,4 =B,,4 | C,2 B,,C, (D,2 E,2 | D,8) | G,,2 G,2 F,4 | %88
w: a- na,||||||long live|fair O- ri- a\- *||na, long live|
 (B,,3 C,) D,2 E,2 | F,8 | B,,8- | B,,4 (F,3 =E, | D,2 C,B,, A,,2) B,, (C, | D,8- | D,8) | D,8- | %96
w: fair * O- ri-|a-|na,|* fair *|* * * * O- ri\-|||a\-|
 D,8 | G,,8 |] %98
w: |na.|

